X:816
T:Reel 816
M:4/4
K:Dmaj
L:1/8
A2FA DAFA|GFEF GBdB|BAFA DAFA|GBAG FDDB|A2FA DAFA|GFEF GBdB| (3FGA Bc dBAG|FAEG FDD2|d2fd adfd|Adcd edBd|Adfd  (3fga fd|eBce dgfefe|Adfd fdfd|Adfd ceeg|faec dBcBAF|AFEG FDD2|
